docs/assets/img/details/overview/scale.svg

<?xml version="1.0" encoding="UTF-8"?>
<svg width="40px" height="40px" viewBox="0 0 40 40" version="1.1" xmlns="http://www.w3.org/2000/svg" xmlns:xlink="http://www.w3.org/1999/xlink">
    <title>scale</title>
    <g id="Welcome" stroke="none" stroke-width="1" fill="none" fill-rule="evenodd">
        <g id="lpw-featured-development-detailed-page-1.0" transform="translate(-825.000000, -1115.000000)" fill="#000000" fill-rule="nonzero">
            <g id="scale" transform="translate(825.000000, 1115.000000)">
                <path d="M30,0 L10,0 C4.4771525,0 0,4.4771525 0,10 L0,30 C0,35.5228475 4.4771525,40 10,40 L30,40 C35.5228475,40 40,35.5228475 40,30 L40,10 C40,4.4771525 35.5228475,0 30,0 Z M38.125,30 C38.1198337,34.4851719 34.4851719,38.1198337 30,38.125 L10,38.125 C5.51482809,38.1198337 1.88016626,34.4851719 1.875,30 L1.875,10 C1.88016626,5.51482809 5.51482809,1.88016626 10,1.875 L30,1.875 C34.4851719,1.88016626 38.1198337,5.51482809 38.125,10 L38.125,30 Z" id="Shape"></path>
                <polygon id="Path" points="28.4375 27.11125 12.88875 11.5625 19.039375 11.5625 19.039375 9.6875 9.6875 9.6875 9.6875 19.039375 11.5625 19.039375 11.5625 12.888125 27.111875 28.4375 20.960625 28.4375 20.960625 30.3125 30.3125 30.3125 30.3125 20.960625 28.4375 20.960625"></polygon>
            </g>
        </g>
    </g>
</svg>

<svg width="40" height="40" xmlns="http://www.w3.org/2000/svg"><path d="M30 0H10C4.477 0 0 4.477 0 10v20c0 5.523 4.477 10 10 10h20c5.523 0 10-4.477 10-10V10c0-5.523-4.477-10-10-10zm8.125 30A8.134 8.134 0 0130 38.125H10A8.134 8.134 0 011.875 30V10A8.134 8.134 0 0110 1.875h20A8.134 8.134 0 0138.125 10v20z"/><path d="M28.438 27.111l-15.55-15.549h6.151V9.688H9.687v9.351h1.876v-6.15l15.549 15.549H20.96v1.875h9.352V20.96h-1.875z"/></svg>
